brandFactory_export/3.Masa/Capas_3Masa.svg

<?xml version="1.0" encoding="UTF-8"?>
<svg width="24px" height="24px" viewBox="0 0 24 24" version="1.1" xmlns="http://www.w3.org/2000/svg" xmlns:xlink="http://www.w3.org/1999/xlink">
    <title>3.Masa/Capas_3Masa</title>
    <g id="Symbols" stroke="none" stroke-width="1" fill="none" fill-rule="evenodd">
        <g id="3.Masa/Capas_3Masa" fill="#5CB615" fill-rule="nonzero">
            <path d="M11.7277311,20.4789916 L2.18487395,15.5747899 L3.40840336,14.9428571 L10.7327731,18.7042017 C11.0453782,18.8621849 11.3882353,18.9462185 11.7310924,18.9462185 C12.0672269,18.9462185 12.4033613,18.8689076 12.712605,18.7109244 L20.1882353,14.9361345 L21.4420168,15.5747899 L11.7277311,20.4789916 L11.7277311,20.4789916 Z M11.7277311,3.19495798 L21.4386555,8.1394958 L11.7277311,13.0403361 L2.18487395,8.1394958 L11.7277311,3.19495798 Z M2.18487395,11.8571429 L3.40840336,11.2252101 L10.7327731,14.989916 C11.0453782,15.1512605 11.3882353,15.2319328 11.7310924,15.2319328 C12.0672269,15.2319328 12.4033613,15.1546218 12.712605,14.9966387 L20.1882353,11.2218487 L21.4420168,11.8605042 L11.7310924,16.7647059 L2.18487395,11.8571429 Z M23.6235476,11.8605042 C23.6235476,11.0907563 23.210084,10.3915966 22.5579832,9.99831933 C23.2067227,9.60840336 23.6235476,8.91260504 23.6235476,8.14621849 C23.6268908,7.32268908 23.1630252,6.56638655 22.4302521,6.19327731 L12.7193277,1.2487395 C12.410084,1.0907563 12.0705882,1.01008403 11.7310924,1.01008403 C11.3882353,1.01008403 11.0420168,1.0907563 10.7260504,1.25546218 L1.18319328,6.2 C0.457142857,6.57647059 0.00334100213,7.32605042 0.00334100213,8.14621849 C0.00672268908,8.91260504 0.416806723,9.60840336 1.06554622,9.99831933 C0.413445378,10.3915966 -3.22485094e-15,11.0941176 0.00334100213,11.8605042 C0.00672268908,12.6268908 0.416806723,13.3226891 1.06554622,13.7159664 C0.413445378,14.112605 -3.22485094e-15,14.8084034 0.00334100213,15.5815126 C0.00672268908,16.3983193 0.463865546,17.1478992 1.18991597,17.5210084 L10.7327731,22.4218487 C11.0453782,22.5831933 11.3882353,22.6638655 11.7310924,22.6638655 C12.0672269,22.6638655 12.4033613,22.5865546 12.712605,22.4285714 L22.4235294,17.5243697 C23.1596639,17.1546218 23.6235476,16.4016807 23.6235476,15.5781513 C23.6235476,14.805042 23.210084,14.1092437 22.5579832,13.712605 C23.2067227,13.3226891 23.6235476,12.6302521 23.6235476,11.8605042 Z" id="Capas_3Masa"></path>
        </g>
    </g>
</svg>

<svg width="24" height="24" viewBox="0 0 24 24" xmlns="http://www.w3.org/2000/svg"><path d="M11.728 20.479l-9.543-4.904 1.223-.632 7.325 3.761c.312.158.655.242.998.242.336 0 .672-.077.982-.235l7.475-3.775 1.254.639-9.714 4.904zm0-17.284l9.71 4.944-9.71 4.901-9.543-4.9 9.543-4.945zm-9.543 8.662l1.223-.632 7.325 3.765a2.176 2.176 0 001.98.007l7.475-3.775 1.254.639-9.71 4.904-9.547-4.908zm21.439.004c0-.77-.414-1.47-1.066-1.863a2.17 2.17 0 001.066-1.852 2.185 2.185 0 00-1.194-1.953L12.72 1.25a2.174 2.174 0 00-1.994.006L1.183 6.2a2.189 2.189 0 00-1.18 1.946 2.174 2.174 0 001.063 1.852 2.173 2.173 0 00-1.063 1.863 2.184 2.184 0 001.063 1.855 2.174 2.174 0 00-1.063 1.866c.004.816.46 1.566 1.187 1.939l9.543 4.9a2.176 2.176 0 001.98.008l9.71-4.905a2.177 2.177 0 001.2-1.946c0-.773-.413-1.469-1.065-1.865a2.165 2.165 0 001.066-1.852z" fill="#5CB615" fill-rule="nonzero"/></svg>
